priv/static/svgs/icons_new/travel-swimming-pool.svg

<svg width="32" height="32" viewBox="0 0 32 32" fill="none" xmlns="http://www.w3.org/2000/svg">
<path d="M7.97658 18.5913C7.7831 18.7883 7.78598 19.1049 7.98301 19.2983C8.18004 19.4918 8.49661 19.4889 8.69009 19.2919L7.97658 18.5913ZM9.73216 17.5171L10.089 17.8674L10.0943 17.8618L9.73216 17.5171ZM10.7774 17.5171L10.4153 17.8619L10.4174 17.864L10.7774 17.5171ZM11.6037 18.3747L11.2436 18.7216L11.2443 18.7223L11.6037 18.3747ZM12.1282 18.5932V19.0932V18.5932ZM12.6528 18.3747L12.3021 18.018L12.2934 18.027L12.6528 18.3747ZM13.5251 17.5171L13.8757 17.8736C13.8796 17.8698 13.8835 17.8658 13.8873 17.8618L13.5251 17.5171ZM14.5704 17.5171L14.2082 17.8619L14.2141 17.8679L14.5704 17.5171ZM15.5042 18.4655L15.8664 18.1207L15.8605 18.1147L15.5042 18.4655ZM16.5495 18.4655L16.1934 18.1145L16.1874 18.1208L16.5495 18.4655ZM17.4488 17.5534L17.8049 17.9045L17.8109 17.8982L17.4488 17.5534ZM18.494 17.5534L18.1319 17.8982L18.1381 17.9045L18.494 17.5534ZM19.3472 18.4183L19.7087 18.0728L19.7031 18.0672L19.3472 18.4183ZM20.3963 18.4183L20.0403 18.0671L20.0349 18.0728L20.3963 18.4183ZM21.2494 17.5534L21.6055 17.9046L21.6116 17.8982L21.2494 17.5534ZM22.2947 17.5534L21.9326 17.8982L21.9355 17.9012L22.2947 17.5534ZM23.3074 19.3184C23.4995 19.5168 23.816 19.522 24.0144 19.3299C24.2128 19.1378 24.218 18.8213 24.0259 18.6229L23.3074 19.3184ZM7.97684 21.9347C7.78321 22.1315 7.78586 22.4481 7.98274 22.6417C8.17963 22.8354 8.4962 22.8327 8.68982 22.6358L7.97684 21.9347ZM9.73216 20.8629L10.0887 21.2135L10.0924 21.2096L9.73216 20.8629ZM10.7774 20.8629L10.4172 21.2096L10.4179 21.2103L10.7774 20.8629ZM11.6037 21.7177L11.9632 21.3703L11.9632 21.3703L11.6037 21.7177ZM12.1282 21.9365V22.4365V21.9365ZM12.6528 21.7177L12.3027 21.3605L12.2932 21.3703L12.6528 21.7177ZM13.5251 20.8629L13.8751 21.22C13.8786 21.2166 13.882 21.2131 13.8853 21.2096L13.5251 20.8629ZM14.5704 20.8629L14.2102 21.2096L14.2139 21.2135L14.5704 20.8629ZM15.5042 21.8123L15.8666 21.4677L15.8607 21.4617L15.5042 21.8123ZM16.5495 21.8123L16.1932 21.4614L16.1872 21.4677L16.5495 21.8123ZM17.4488 20.8992L17.8051 21.2501L17.8111 21.2438L17.4488 20.8992ZM18.494 20.8992L18.1317 21.2439L18.1372 21.2494L18.494 20.8992ZM19.3472 21.7687L19.7067 21.4212L19.7041 21.4185L19.3472 21.7687ZM20.3963 21.7687L20.0394 21.4185L20.0368 21.4212L20.3963 21.7687ZM21.2494 20.8992L21.6064 21.2495L21.6117 21.2438L21.2494 20.8992ZM22.2947 20.8992L21.9324 21.2438L21.9353 21.2468L22.2947 20.8992ZM23.3072 22.6656C23.4992 22.8641 23.8157 22.8694 24.0142 22.6774C24.2127 22.4855 24.218 22.1689 24.0261 21.9704L23.3072 22.6656ZM13.5567 9.25358C13.5567 8.97743 13.3328 8.75358 13.0567 8.75358C12.7805 8.75358 12.5567 8.97743 12.5567 9.25358H13.5567ZM12.5567 15.1883C12.5567 15.4644 12.7805 15.6883 13.0567 15.6883C13.3328 15.6883 13.5567 15.4644 13.5567 15.1883H12.5567ZM14.35 6.5C14.6261 6.5 14.85 6.27614 14.85 6C14.85 5.72386 14.6261 5.5 14.35 5.5V6.5ZM12.56 10.1941C12.56 10.4703 12.7838 10.6941 13.06 10.6941C13.3361 10.6941 13.56 10.4703 13.56 10.1941H12.56ZM19.2066 9.25358C19.2066 8.97743 18.9828 8.75358 18.7066 8.75358C18.4305 8.75358 18.2066 8.97743 18.2066 9.25358H19.2066ZM18.2066 15.1883C18.2066 15.4644 18.4305 15.6883 18.7066 15.6883C18.9828 15.6883 19.2066 15.4644 19.2066 15.1883H18.2066ZM20 6.5C20.2761 6.5 20.5 6.27614 20.5 6C20.5 5.72386 20.2761 5.5 20 5.5V6.5ZM18.21 10.1941C18.21 10.4703 18.4338 10.6941 18.71 10.6941C18.9861 10.6941 19.21 10.4703 19.21 10.1941H18.21ZM10.5 11.1025C10.7761 11.1025 11 10.8787 11 10.6025C11 10.3264 10.7761 10.1025 10.5 10.1025V11.1025ZM21 10.1025C20.7238 10.1025 20.5 10.3264 20.5 10.6025C20.5 10.8787 20.7238 11.1025 21 11.1025V10.1025ZM13.0933 10.2423H18.64V9.24234H13.0933V10.2423ZM13.0933 13.4088H18.6567V12.4088H13.0933V13.4088ZM8.69009 19.2919L10.0889 17.8674L9.3754 17.1667L7.97658 18.5913L8.69009 19.2919ZM10.0943 17.8618C10.1117 17.8435 10.1348 17.8271 10.1628 17.8153L9.77472 16.8937C9.62265 16.9577 9.48446 17.0521 9.37004 17.1723L10.0943 17.8618ZM10.1628 17.8153C10.1908 17.8035 10.2223 17.797 10.2548 17.797V16.797C10.0902 16.797 9.92674 16.8297 9.77472 16.8937L10.1628 17.8153ZM10.2548 17.797C10.2873 17.797 10.3188 17.8035 10.3468 17.8153L10.7349 16.8937C10.5829 16.8297 10.4194 16.797 10.2548 16.797V17.797ZM10.3468 17.8153C10.3748 17.8271 10.3979 17.8435 10.4153 17.8618L11.1396 17.1723C11.0251 17.0521 10.8869 16.9577 10.7349 16.8937L10.3468 17.8153ZM10.4174 17.864L11.2436 18.7216L11.9637 18.0278L11.1375 17.1702L10.4174 17.864ZM11.2443 18.7223C11.3593 18.8412 11.4976 18.9345 11.6494 18.9977L12.0339 18.0746C12.0051 18.0626 11.9813 18.0459 11.963 18.027L11.2443 18.7223ZM11.6494 18.9977C11.8011 19.0609 11.9641 19.0932 12.1282 19.0932V18.0932C12.0949 18.0932 12.0627 18.0866 12.0339 18.0746L11.6494 18.9977ZM12.1282 19.0932C12.2923 19.0932 12.4553 19.0609 12.6071 18.9977L12.2226 18.0746C12.1937 18.0866 12.1615 18.0932 12.1282 18.0932V19.0932ZM12.6071 18.9977C12.7589 18.9345 12.8972 18.8412 13.0121 18.7223L12.2934 18.027C12.2752 18.0459 12.2514 18.0626 12.2226 18.0746L12.6071 18.9977ZM13.0033 18.7312L13.8757 17.8736L13.1746 17.1605L12.3023 18.0181L13.0033 18.7312ZM13.8873 17.8618C13.9047 17.8435 13.9277 17.8271 13.9557 17.8153L13.5677 16.8937C13.4156 16.9577 13.2774 17.0521 13.163 17.1723L13.8873 17.8618ZM13.9557 17.8153C13.9838 17.8035 14.0152 17.797 14.0478 17.797V16.797C13.8832 16.797 13.7197 16.8297 13.5677 16.8937L13.9557 17.8153ZM14.0478 17.797C14.0803 17.797 14.1117 17.8035 14.1398 17.8153L14.5278 16.8937C14.3758 16.8297 14.2124 16.797 14.0478 16.797V17.797ZM14.1398 17.8153C14.1678 17.8271 14.1908 17.8435 14.2083 17.8618L14.9325 17.1723C14.8181 17.0521 14.6799 16.9577 14.5278 16.8937L14.1398 17.8153ZM14.2141 17.8679L15.148 18.8163L15.8605 18.1147L14.9267 17.1663L14.2141 17.8679ZM15.1421 18.8103C15.2566 18.9305 15.3948 19.0249 15.5468 19.0889L15.9349 18.1673C15.9068 18.1555 15.8838 18.1391 15.8664 18.1208L15.1421 18.8103ZM15.5468 19.0889C15.6988 19.1529 15.8623 19.1856 16.0269 19.1856V18.1856C15.9944 18.1856 15.9629 18.1791 15.9349 18.1673L15.5468 19.0889ZM16.0269 19.1856C16.1915 19.1856 16.355 19.1529 16.507 19.0889L16.1189 18.1673C16.0909 18.1791 16.0594 18.1856 16.0269 18.1856V19.1856ZM16.507 19.0889C16.659 19.0249 16.7972 18.9305 16.9116 18.8103L16.1874 18.1208C16.1699 18.1391 16.1469 18.1555 16.1189 18.1673L16.507 19.0889ZM16.9056 18.8166L17.8048 17.9044L17.0927 17.2024L16.1935 18.1145L16.9056 18.8166ZM17.8109 17.8982C17.8284 17.8798 17.8514 17.8635 17.8794 17.8517L17.4913 16.93C17.3393 16.9941 17.2011 17.0885 17.0867 17.2086L17.8109 17.8982ZM17.8794 17.8517C17.9074 17.8399 17.9389 17.8334 17.9714 17.8334V16.8334C17.8068 16.8334 17.6433 16.866 17.4913 16.93L17.8794 17.8517ZM17.9714 17.8334C18.0039 17.8334 18.0354 17.8399 18.0634 17.8517L18.4515 16.93C18.2995 16.866 18.136 16.8334 17.9714 16.8334V17.8334ZM18.0634 17.8517C18.0915 17.8635 18.1145 17.8798 18.1319 17.8982L18.8562 17.2086C18.7417 17.0885 18.6035 16.9941 18.4515 16.93L18.0634 17.8517ZM18.1381 17.9045L18.9912 18.7694L19.7031 18.0672L18.85 17.2023L18.1381 17.9045ZM18.9857 18.7638C19.1005 18.8838 19.2389 18.9781 19.3912 19.042L19.7784 18.12C19.7499 18.1081 19.7264 18.0915 19.7086 18.0728L18.9857 18.7638ZM19.3912 19.042C19.5434 19.1059 19.707 19.1386 19.8717 19.1386V18.1386C19.8388 18.1386 19.8069 18.132 19.7784 18.12L19.3912 19.042ZM19.8717 19.1386C20.0365 19.1386 20.2001 19.1059 20.3523 19.042L19.9651 18.12C19.9366 18.132 19.9047 18.1386 19.8717 18.1386V19.1386ZM20.3523 19.042C20.5045 18.9781 20.643 18.8838 20.7577 18.7638L20.0349 18.0728C20.017 18.0915 19.9936 18.1081 19.9651 18.12L20.3523 19.042ZM20.7523 18.7694L21.6054 17.9045L20.8935 17.2023L20.0403 18.0672L20.7523 18.7694ZM21.6116 17.8982C21.629 17.8798 21.652 17.8635 21.68 17.8517L21.292 16.93C21.1399 16.9941 21.0017 17.0885 20.8873 17.2086L21.6116 17.8982ZM21.68 17.8517C21.7081 17.8399 21.7395 17.8334 21.7721 17.8334V16.8334C21.6075 16.8334 21.444 16.866 21.292 16.93L21.68 17.8517ZM21.7721 17.8334C21.8046 17.8334 21.836 17.8399 21.8641 17.8517L22.2522 16.93C22.1001 16.866 21.9367 16.8334 21.7721 16.8334V17.8334ZM21.8641 17.8517C21.8921 17.8635 21.9152 17.8799 21.9326 17.8982L22.6568 17.2086C22.5424 17.0884 22.4042 16.9941 22.2522 16.93L21.8641 17.8517ZM21.9355 17.9012L23.3074 19.3184L24.0259 18.6229L22.654 17.2056L21.9355 17.9012ZM8.68982 22.6358L10.0887 21.2134L9.37566 20.5123L7.97684 21.9347L8.68982 22.6358ZM10.0924 21.2096C10.1103 21.191 10.1337 21.1745 10.162 21.1627L9.77626 20.2401C9.62458 20.3035 9.48658 20.397 9.37195 20.5161L10.0924 21.2096ZM10.162 21.1627C10.1903 21.1509 10.222 21.1443 10.2548 21.1443V20.1443C10.0908 20.1443 9.92789 20.1767 9.77626 20.2401L10.162 21.1627ZM10.2548 21.1443C10.2875 21.1443 10.3192 21.1509 10.3476 21.1627L10.7333 20.2401C10.5817 20.1767 10.4188 20.1443 10.2548 20.1443V21.1443ZM10.3476 21.1627C10.3759 21.1746 10.3993 21.191 10.4172 21.2096L11.1377 20.5161C11.023 20.397 10.885 20.3035 10.7333 20.2401L10.3476 21.1627ZM10.4179 21.2103L11.2441 22.0652L11.9632 21.3703L11.137 20.5154L10.4179 21.2103ZM11.2441 22.0652C11.3591 22.1842 11.4973 22.2775 11.6492 22.3409L12.0341 21.4179C12.0053 21.4059 11.9815 21.3892 11.9632 21.3703L11.2441 22.0652ZM11.6492 22.3409C11.801 22.4042 11.9641 22.4365 12.1282 22.4365V21.4365C12.095 21.4365 12.0629 21.4299 12.0341 21.4179L11.6492 22.3409ZM12.1282 22.4365C12.2924 22.4365 12.4555 22.4042 12.6073 22.3409L12.2224 21.4179C12.1936 21.4299 12.1614 21.4365 12.1282 21.4365V22.4365ZM12.6073 22.3409C12.7591 22.2775 12.8974 22.1842 13.0123 22.0652L12.2932 21.3703C12.275 21.3892 12.2512 21.4059 12.2224 21.4179L12.6073 22.3409ZM13.0027 22.0749L13.8751 21.22L13.1752 20.5057L12.3028 21.3606L13.0027 22.0749ZM13.8853 21.2096C13.9032 21.191 13.9266 21.1746 13.955 21.1627L13.5692 20.2401C13.4176 20.3035 13.2796 20.397 13.1649 20.5161L13.8853 21.2096ZM13.955 21.1627C13.9833 21.1509 14.015 21.1443 14.0478 21.1443V20.1443C13.8838 20.1443 13.7209 20.1767 13.5692 20.2401L13.955 21.1627ZM14.0478 21.1443C14.0805 21.1443 14.1122 21.1509 14.1406 21.1627L14.5263 20.2401C14.3747 20.1767 14.2118 20.1443 14.0478 20.1443V21.1443ZM14.1406 21.1627C14.1689 21.1746 14.1923 21.191 14.2102 21.2096L14.9306 20.5161C14.816 20.397 14.678 20.3035 14.5263 20.2401L14.1406 21.1627ZM14.2139 21.2135L15.1478 22.1629L15.8607 21.4617L14.9269 20.5122L14.2139 21.2135ZM15.1419 22.1569C15.2564 22.2772 15.3945 22.3717 15.5466 22.4358L15.935 21.5143C15.907 21.5025 15.884 21.4861 15.8665 21.4677L15.1419 22.1569ZM15.5466 22.4358C15.6987 22.4999 15.8622 22.5326 16.0269 22.5326V21.5326C15.9944 21.5326 15.9631 21.5261 15.935 21.5143L15.5466 22.4358ZM16.0269 22.5326C16.1915 22.5326 16.3551 22.4999 16.5071 22.4358L16.1187 21.5143C16.0907 21.5261 16.0593 21.5326 16.0269 21.5326V22.5326ZM16.5071 22.4358C16.6592 22.3717 16.7974 22.2772 16.9118 22.1569L16.1872 21.4677C16.1697 21.4861 16.1467 21.5025 16.1187 21.5143L16.5071 22.4358ZM16.9058 22.1632L17.805 21.2501L17.0925 20.5484L16.1933 21.4615L16.9058 22.1632ZM17.8111 21.2438C17.8286 21.2254 17.8516 21.209 17.8796 21.1973L17.4912 20.2758C17.3391 20.3399 17.2009 20.4344 17.0865 20.5546L17.8111 21.2438ZM17.8796 21.1973C17.9076 21.1854 17.939 21.1789 17.9714 21.1789V20.1789C17.8068 20.1789 17.6432 20.2117 17.4912 20.2758L17.8796 21.1973ZM17.9714 21.1789C18.0039 21.1789 18.0352 21.1854 18.0633 21.1973L18.4517 20.2758C18.2996 20.2117 18.1361 20.1789 17.9714 20.1789V21.1789ZM18.0633 21.1973C18.0912 21.209 18.1143 21.2254 18.1317 21.2438L18.8563 20.5546C18.7419 20.4344 18.6038 20.3399 18.4517 20.2758L18.0633 21.1973ZM18.1372 21.2494L18.9903 22.1189L19.7041 21.4185L18.8509 20.549L18.1372 21.2494ZM18.9876 22.1161C19.1026 22.2351 19.2408 22.3285 19.3927 22.3918L19.7776 21.4688C19.7488 21.4568 19.725 21.4401 19.7067 21.4212L18.9876 22.1161ZM19.3927 22.3918C19.5445 22.4551 19.7076 22.4874 19.8717 22.4874V21.4874C19.8385 21.4874 19.8064 21.4808 19.7776 21.4688L19.3927 22.3918ZM19.8717 22.4874C20.0359 22.4874 20.199 22.4551 20.3508 22.3918L19.9659 21.4688C19.9371 21.4808 19.9049 21.4874 19.8717 21.4874V22.4874ZM20.3508 22.3918C20.5026 22.3285 20.6409 22.2351 20.7559 22.1161L20.0368 21.4212C20.0185 21.4401 19.9947 21.4568 19.9659 21.4688L20.3508 22.3918ZM20.7532 22.1189L21.6063 21.2494L20.8926 20.549L20.0394 21.4185L20.7532 22.1189ZM21.6117 21.2438C21.6292 21.2254 21.6522 21.209 21.6802 21.1973L21.2918 20.2758C21.1397 20.3399 21.0015 20.4344 20.8871 20.5546L21.6117 21.2438ZM21.6802 21.1973C21.7082 21.1854 21.7396 21.1789 21.7721 21.1789V20.1789C21.6074 20.1789 21.4439 20.2117 21.2918 20.2758L21.6802 21.1973ZM21.7721 21.1789C21.8045 21.1789 21.8359 21.1854 21.8639 21.1973L22.2523 20.2758C22.1003 20.2117 21.9367 20.1789 21.7721 20.1789V21.1789ZM21.8639 21.1973C21.8919 21.209 21.9149 21.2254 21.9324 21.2438L22.657 20.5546C22.5426 20.4344 22.4044 20.3399 22.2523 20.2758L21.8639 21.1973ZM21.9353 21.2468L23.3072 22.6656L24.0261 21.9704L22.6542 20.5517L21.9353 21.2468ZM12.5567 9.25358V15.1883H13.5567V9.25358H12.5567ZM14.35 5.5C13.9465 5.5 13.6067 5.61722 13.336 5.82376C13.0719 6.02532 12.9027 6.28951 12.7935 6.54234C12.5801 7.03634 12.56 7.57232 12.56 7.80753H13.56C13.56 7.6076 13.5815 7.23981 13.7115 6.93883C13.774 6.79417 13.8518 6.68807 13.9427 6.61871C14.0271 6.55433 14.1501 6.5 14.35 6.5V5.5ZM12.56 7.80753V10.1941H13.56V7.80753H12.56ZM18.2066 9.25358V15.1883H19.2066V9.25358H18.2066ZM20 5.5C19.5965 5.5 19.2567 5.61722 18.986 5.82376C18.7219 6.02532 18.5527 6.28951 18.4435 6.54234C18.2301 7.03634 18.21 7.57232 18.21 7.80753H19.21C19.21 7.6076 19.2315 7.23981 19.3615 6.93883C19.424 6.79417 19.5018 6.68807 19.5927 6.61871C19.6771 6.55433 19.8001 6.5 20 6.5V5.5ZM18.21 7.80753V10.1941H19.21V7.80753H18.21ZM25.5 14.2389V22.3636H26.5V14.2389H25.5ZM6.5 22.3636V14.2389H5.5V22.3636H6.5ZM9.63636 11.1025H10.5V10.1025H9.63636V11.1025ZM21 11.1025H22.3636V10.1025H21V11.1025ZM5.5 22.3636C5.5 24.6481 7.35191 26.5 9.63636 26.5V25.5C7.9042 25.5 6.5 24.0958 6.5 22.3636H5.5ZM25.5 22.3636C25.5 24.0958 24.0958 25.5 22.3636 25.5V26.5C24.6481 26.5 26.5 24.6481 26.5 22.3636H25.5ZM26.5 14.2389C26.5 11.9544 24.6481 10.1025 22.3636 10.1025V11.1025C24.0958 11.1025 25.5 12.5067 25.5 14.2389H26.5ZM6.5 14.2389C6.5 12.5067 7.9042 11.1025 9.63636 11.1025V10.1025C7.35191 10.1025 5.5 11.9544 5.5 14.2389H6.5ZM22.3636 25.5H9.63636V26.5H22.3636V25.5Z" fill="black"/>
</svg>

<svg width="32" height="32" viewBox="0 0 32 32" fill="none" xmlns="http://www.w3.org/2000/svg">
  <symbol id="item" viewBox="0 0 32 32"  fill="none">
    <path d="M7.977 18.591a.5.5 0 1 0 .713.7l-.713-.7Zm1.755-1.074.357.35.005-.005-.362-.345Zm1.045 0-.362.345.002.002.36-.347Zm.827.858-.36.347.36-.347Zm.524.218v.5-.5Zm.525-.218-.35-.357-.01.009.36.348Zm.872-.858.35.357a.432.432 0 0 0 .012-.012l-.362-.345Zm1.045 0-.362.345.006.006.356-.35Zm.934.948.362-.344-.005-.006-.357.35Zm1.045 0-.356-.35-.006.006.362.345Zm.9-.912.356.351.006-.006-.362-.345Zm1.045 0-.362.345.006.006.356-.35Zm.853.865.362-.345-.006-.006-.356.351Zm1.05 0-.357-.35-.005.005.361.345Zm.852-.865.357.352.006-.007-.363-.345Zm1.046 0-.362.345.003.003.359-.348Zm1.012 1.765a.5.5 0 1 0 .719-.695l-.719.695Zm-15.33 2.617a.5.5 0 1 0 .713.7l-.713-.7Zm1.755-1.072.357.35.003-.003-.36-.347Zm1.045 0-.36.347.36-.347Zm.827.855.36-.348-.36.348Zm.524.218v.5-.5Zm.525-.218-.35-.358-.01.01.36.348Zm.872-.855.35.357a.332.332 0 0 0 .01-.01l-.36-.347Zm1.045 0-.36.347.004.003.356-.35Zm.934.95.363-.345-.006-.006-.357.35Zm1.045 0-.356-.352-.006.007.362.344Zm.9-.914.356.351.006-.006-.362-.345Zm1.045 0-.362.345.005.005.357-.35Zm.853.87.36-.348-.003-.002-.357.35Zm1.05 0-.358-.35-.002.002.36.348Zm.852-.87.357.35.006-.005-.363-.345Zm1.046 0-.363.345.003.003.36-.348Zm1.012 1.767a.5.5 0 0 0 .72-.696l-.72.696Zm-9.75-13.412a.5.5 0 0 0-1 0h1Zm-1 5.934a.5.5 0 1 0 1 0h-1ZM14.35 6.5a.5.5 0 0 0 0-1v1Zm-1.79 3.694a.5.5 0 1 0 1 0h-1Zm6.647-.94a.5.5 0 1 0-1 0h1Zm-1 5.934a.5.5 0 0 0 1 0h-1ZM20 6.5a.5.5 0 0 0 0-1v1Zm-1.79 3.694a.5.5 0 1 0 1 0h-1Zm-7.71.908a.5.5 0 1 0 0-1v1Zm10.5-1a.5.5 0 1 0 0 1v-1Zm-7.907.14h5.547v-1h-5.547v1Zm0 3.167h5.564v-1h-5.564v1ZM8.69 19.292l1.399-1.425-.714-.7-1.398 1.424.713.7Zm1.404-1.43a.203.203 0 0 1 .069-.047l-.388-.921c-.152.064-.29.158-.405.278l.724.69Zm.069-.047a.238.238 0 0 1 .092-.018v-1c-.165 0-.328.033-.48.097l.388.921Zm.092-.018c.032 0 .064.006.092.018l.388-.921a1.238 1.238 0 0 0-.48-.097v1Zm.092.018a.203.203 0 0 1 .068.047l.725-.69a1.204 1.204 0 0 0-.405-.278l-.388.921Zm.07.049.827.858.72-.694-.827-.858-.72.694Zm.827.858c.115.12.254.212.405.276l.385-.923a.212.212 0 0 1-.071-.048l-.719.695Zm.405.276c.152.063.315.095.48.095v-1a.246.246 0 0 1-.095-.018l-.385.923Zm.48.095c.163 0 .326-.032.478-.095l-.384-.923a.247.247 0 0 1-.095.018v1Zm.478-.095a1.21 1.21 0 0 0 .405-.276l-.719-.695a.21.21 0 0 1-.07.048l.384.923Zm.396-.267.873-.857-.701-.713-.873.857.701.713Zm.884-.87a.203.203 0 0 1 .069-.046l-.388-.921c-.152.064-.29.158-.405.278l.724.69Zm.069-.046a.238.238 0 0 1 .092-.018v-1c-.165 0-.328.033-.48.097l.388.921Zm.092-.018c.032 0 .064.006.092.018l.388-.921a1.237 1.237 0 0 0-.48-.097v1Zm.092.018a.204.204 0 0 1 .068.047l.724-.69a1.202 1.202 0 0 0-.404-.278l-.388.921Zm.074.053.934.948.713-.701-.934-.949-.713.702Zm.928.942c.115.12.253.215.405.279l.388-.922a.202.202 0 0 1-.069-.046l-.724.69Zm.405.279c.152.064.315.097.48.097v-1a.238.238 0 0 1-.092-.019l-.388.922Zm.48.097c.165 0 .328-.033.48-.097l-.388-.922a.238.238 0 0 1-.092.019v1Zm.48-.097c.152-.064.29-.159.405-.279l-.725-.69a.204.204 0 0 1-.068.047l.388.922Zm.399-.272.899-.913-.712-.702-.9.912.713.703Zm.905-.919a.203.203 0 0 1 .068-.046l-.388-.922c-.152.064-.29.159-.404.279l.724.69Zm.068-.046a.238.238 0 0 1 .092-.019v-1c-.164 0-.328.033-.48.097l.388.922Zm.092-.019c.033 0 .064.007.092.019l.389-.922a1.238 1.238 0 0 0-.48-.097v1Zm.092.019a.2.2 0 0 1 .069.046l.724-.69a1.207 1.207 0 0 0-.405-.278l-.388.922Zm.075.052.853.865.712-.702-.853-.865-.712.702Zm.848.86c.114.12.253.214.405.278l.387-.922a.205.205 0 0 1-.07-.047l-.722.69Zm.405.278c.152.064.316.097.48.097v-1a.241.241 0 0 1-.093-.019l-.387.922Zm.48.097c.166 0 .33-.033.481-.097l-.387-.922a.241.241 0 0 1-.093.019v1Zm.481-.097c.152-.064.291-.158.406-.278l-.723-.691a.206.206 0 0 1-.07.047l.387.922Zm.4-.273.853-.864-.712-.703-.853.865.712.702Zm.86-.87a.201.201 0 0 1 .068-.047l-.388-.922c-.152.064-.29.159-.405.279l.725.69Zm.068-.047a.238.238 0 0 1 .092-.019v-1c-.164 0-.328.033-.48.097l.388.922Zm.092-.019c.033 0 .064.007.092.019l.388-.922a1.238 1.238 0 0 0-.48-.097v1Zm.092.019a.203.203 0 0 1 .069.046l.724-.69a1.204 1.204 0 0 0-.405-.278l-.388.922Zm.072.05 1.371 1.416.719-.695-1.372-1.417-.718.695ZM8.69 22.635l1.399-1.423-.713-.7-1.4 1.422.714.7Zm1.402-1.426a.207.207 0 0 1 .07-.047l-.386-.923c-.151.064-.29.157-.404.276l.72.694Zm.07-.047a.242.242 0 0 1 .093-.019v-1c-.164 0-.327.033-.479.096l.386.923Zm.093-.019c.032 0 .064.007.093.019l.385-.923a1.24 1.24 0 0 0-.478-.096v1Zm.093.019a.208.208 0 0 1 .07.047l.72-.694a1.208 1.208 0 0 0-.405-.276l-.385.923Zm.07.047.826.855.72-.695-.827-.855-.72.695Zm.826.855c.115.12.253.212.405.276l.385-.923a.212.212 0 0 1-.07-.048l-.72.695Zm.405.276c.152.063.315.095.48.095v-1a.245.245 0 0 1-.095-.018l-.385.923Zm.48.095c.163 0 .327-.032.478-.095l-.385-.923a.246.246 0 0 1-.094.018v1Zm.478-.095c.152-.064.29-.157.405-.276l-.719-.695a.21.21 0 0 1-.07.048l.384.923Zm.396-.266.872-.855-.7-.714-.872.855.7.714Zm.882-.865a.208.208 0 0 1 .07-.047l-.386-.923c-.151.064-.29.157-.404.276l.72.694Zm.07-.047a.242.242 0 0 1 .093-.019v-1c-.164 0-.327.033-.479.096l.386.923Zm.093-.019c.033 0 .064.007.093.019l.385-.923a1.24 1.24 0 0 0-.478-.096v1Zm.093.019a.208.208 0 0 1 .07.047l.72-.694a1.206 1.206 0 0 0-.405-.276l-.385.923Zm.073.05.934.95.713-.701-.934-.95-.713.701Zm.928.944c.114.12.253.215.405.279l.388-.922a.203.203 0 0 1-.069-.046l-.724.689Zm.405.279c.152.064.315.097.48.097v-1a.238.238 0 0 1-.092-.019l-.388.922Zm.48.097c.165 0 .328-.033.48-.097l-.388-.922a.237.237 0 0 1-.092.019v1Zm.48-.097c.152-.064.29-.159.405-.28l-.725-.688a.203.203 0 0 1-.068.046l.388.922Zm.399-.273.899-.913-.712-.702-.9.914.713.701Zm.905-.92a.201.201 0 0 1 .069-.046l-.389-.921c-.152.064-.29.158-.404.279l.724.689Zm.069-.046a.235.235 0 0 1 .091-.018v-1c-.164 0-.328.033-.48.097l.389.921Zm.091-.018c.033 0 .064.006.092.018l.389-.921a1.237 1.237 0 0 0-.48-.097v1Zm.092.018a.201.201 0 0 1 .069.047l.724-.69a1.203 1.203 0 0 0-.404-.278l-.389.921Zm.074.052.853.87.714-.7-.853-.87-.714.7Zm.85.867c.116.12.254.212.406.276l.385-.923a.212.212 0 0 1-.071-.048l-.72.695Zm.406.276c.151.063.315.095.479.095v-1a.245.245 0 0 1-.094-.018l-.385.923Zm.479.095c.164 0 .327-.032.479-.095l-.385-.923a.246.246 0 0 1-.094.018v1Zm.479-.095c.152-.064.29-.157.405-.276l-.72-.695a.212.212 0 0 1-.07.048l.385.923Zm.402-.273.853-.87-.713-.7-.854.87.714.7Zm.859-.875a.201.201 0 0 1 .068-.047l-.388-.921c-.152.064-.29.158-.405.279l.725.689Zm.068-.047a.236.236 0 0 1 .092-.018v-1c-.165 0-.328.033-.48.097l.388.921Zm.092-.018c.033 0 .064.006.092.018l.388-.921a1.237 1.237 0 0 0-.48-.097v1Zm.092.018a.201.201 0 0 1 .068.047l.725-.69a1.204 1.204 0 0 0-.405-.278l-.388.921Zm.071.05 1.372 1.419.72-.696-1.373-1.418-.719.695ZM12.557 9.254v5.934h1V9.254h-1ZM14.35 5.5c-.403 0-.743.117-1.014.324a1.775 1.775 0 0 0-.543.718c-.213.494-.233 1.03-.233 1.266h1c0-.2.021-.568.151-.87a.782.782 0 0 1 .232-.32.639.639 0 0 1 .407-.118v-1Zm-1.79 2.308v2.386h1V7.808h-1Zm5.647 1.446v5.934h1V9.254h-1ZM20 5.5c-.404 0-.743.117-1.014.324a1.775 1.775 0 0 0-.543.718c-.213.494-.233 1.03-.233 1.266h1c0-.2.021-.568.151-.87a.782.782 0 0 1 .232-.32A.639.639 0 0 1 20 6.5v-1Zm-1.79 2.308v2.386h1V7.808h-1Zm7.29 6.43v8.126h1v-8.125h-1Zm-19 8.126v-8.125h-1v8.125h1Zm3.136-11.262h.864v-1h-.864v1Zm11.364 0h1.364v-1H21v1ZM5.5 22.364A4.136 4.136 0 0 0 9.636 26.5v-1A3.136 3.136 0 0 1 6.5 22.364h-1Zm20 0a3.136 3.136 0 0 1-3.136 3.136v1a4.136 4.136 0 0 0 4.136-4.136h-1Zm1-8.125a4.136 4.136 0 0 0-4.136-4.137v1A3.136 3.136 0 0 1 25.5 14.24h1Zm-20 0a3.136 3.136 0 0 1 3.136-3.137v-1A4.136 4.136 0 0 0 5.5 14.24h1ZM22.364 25.5H9.636v1h12.728v-1Z" fill="currentColor"/>
  </symbol>
</svg>
